X:1
T:Title
%%score { 1 | 2 }
L:1/8
Q:1/4=100
M:4/4
K:Eb
V:1 treble nm="Grand Piano"
V:2 bass 
V:1
 E3 F G[FA] [GB]>[Ac] | [GB]4 G4 | E3 E F2 G2 | [DF]6 z2 | E3 F G[FA] [GB]>[Ac] | [GB]4 G4 | %6
w: Hubert~P.~Main * * * * *||||||
 e3 G [EG]2 [DF]2 | E6 z2 | [FA]3 [EG] [DF][EG] [FA]>[GB] | [FA]4 [DF]4 | G3 A B2 G2 | [B,DF]6 z2 | %12
w: ||||||
 [G,E]3 [A,EF] [B,EG][B,FA] [_DGB]>[DEG] | [CEB]4 [CEA]4 | %14
w: ||
 [B,EG]3 [A,B,F][K:bass] [G,B,E]2 [F,B,D]2 | [E,G,B,E]6 z2 |] %16
w: ||
V:2
 [E,G,]3 [E,A,E] [E,B,E][E,B,] [E,E]>[E,E] | [E,E]4 [E,B,E]4 | [G,B,]3 [G,B,] [F,B,D]2 [E,B,E]2 | %3
 [B,,B,]6 z2 | [E,G,]3 [E,A,E] [E,B,E][E,B,] [E,E]>[E,E] | [E,E]4 [E,B,E]4 | %6
 [G,B,E]3 [E,B,E] [B,,B,]2 [B,,A,]2 | [E,G,]6 z2 | %8
 [B,,B,]3 [B,,B,] [B,,B,][B,,B,] [B,,B,]>[B,,B,] | [B,,B,]4 [B,,B,]4 | %10
 [E,B,E]3 [F,B,D] [G,B,E]2 [E,B,E]2 | B,,6 z2 | E,3 E, E,E, E,>E, | A,,4 A,,4 | %14
 B,,3 B,, B,,2 B,,2 | E,,6 z2 |] %16

